desktoptheme/Sweet-HTB/icons/ktorrent.svg

<?xml version="1.0" encoding="UTF-8" standalone="no"?>
<svg
   id="svg2817"
   width="22"
   height="22"
   inkscape:version="1.1.2 (0a00cf5339, 2022-02-04)"
   sodipodi:docname="ktorrent.svg"
   version="1"
   xmlns:inkscape="http://www.inkscape.org/namespaces/inkscape"
   xmlns:sodipodi="http://sodipodi.sourceforge.net/DTD/sodipodi-0.dtd"
   xmlns="http://www.w3.org/2000/svg"
   xmlns:svg="http://www.w3.org/2000/svg"
   xmlns:rdf="http://www.w3.org/1999/02/22-rdf-syntax-ns#"
   xmlns:cc="http://creativecommons.org/ns#"
   xmlns:dc="http://purl.org/dc/elements/1.1/">
  <metadata
     id="metadata22">
    <rdf:RDF>
      <cc:Work
         rdf:about="">
        <dc:format>image/svg+xml</dc:format>
        <dc:type
           rdf:resource="http://purl.org/dc/dcmitype/StillImage" />
      </cc:Work>
    </rdf:RDF>
  </metadata>
  <sodipodi:namedview
     id="namedview8"
     bordercolor="#666666"
     borderopacity="1"
     gridtolerance="10"
     guidetolerance="10"
     inkscape:bbox-nodes="true"
     inkscape:current-layer="g11"
     inkscape:cx="11.255321"
     inkscape:cy="10.027102"
     inkscape:pageopacity="0"
     inkscape:pageshadow="2"
     inkscape:snap-bbox="true"
     inkscape:snap-bbox-edge-midpoints="true"
     inkscape:snap-nodes="false"
     inkscape:window-height="714"
     inkscape:window-maximized="1"
     inkscape:window-width="1366"
     inkscape:window-x="0"
     inkscape:window-y="26"
     inkscape:zoom="24.832699"
     objecttolerance="10"
     pagecolor="#323232"
     showgrid="true"
     inkscape:document-rotation="0"
     inkscape:pagecheckerboard="0">
    <inkscape:grid
       id="grid843"
       type="xygrid" />
  </sodipodi:namedview>
  <defs
     id="defs9">
    <style
       id="current-color-scheme"
       type="text/css">.ColorScheme-Text { color:#a1adc8; } .ColorScheme-Highlight { color:#5294e2; } .ColorScheme-ButtonBackground { color:#a1adc8; }</style>
    <linearGradient
       id="a"
       x1="37.2"
       x2="36.985"
       y1="56.511"
       y2="34.977"
       gradientTransform="matrix(.78047 0 0 .78047 43.659 -18.227)"
       gradientUnits="userSpaceOnUse">
      <stop
         id="stop2"
         offset="0" />
      <stop
         id="stop4"
         stop-opacity="0"
         offset="1" />
    </linearGradient>
    <style
       id="current-color-scheme-3"
       type="text/css">.ColorScheme-Text { color:#363636; } .ColorScheme-Highlight { color:#5294e2; } .ColorScheme-ButtonBackground { color:#363636; }</style>
  </defs>
  <g
     id="22-22-ktorrent"
     enable-background="new">
    <path
       id="path826-5"
       style="display:inline;opacity:0.35;fill:#a1adc8;fill-opacity:1;enable-background:new"
       d="m 11,2 c -4.970563,0 -9,4.029437 -9,9 0,4.970563 4.029437,9 9,9 4.970563,0 9,-4.029437 9,-9 0,-4.970563 -4.029437,-9.0000001 -9,-9 z m 2.003953,4.001953 V 12 H 16 c 0,0 -4,6 -5,6 -1,0 -5,-6 -5,-6 H 9 V 6.001953 c 7.03e-4,-1.317132 2.55e-4,-1.319841 2.000279,-1.314124 2.000023,0.0057 1.999595,-4.08e-4 2.003674,1.314124 z"
       sodipodi:nodetypes="ssssscccsccccc" />
    <path
       id="rect4139"
       d="m 0.25,0 h 21.5 C 21.8885,0 22,0.1115 22,0.25 v 21.5 C 22,21.8885 21.88849,22 21.75,22 H 0.25 C 0.1115,22 0,21.8885 0,21.75 V 0.25 C 0,0.1115 0.11151,0 0.25,0 Z"
       opacity="0"
       inkscape:connector-curvature="0" />
    <g
       id="g11"
       fill="#a1adc8"
       style="fill:#a1adc8;fill-opacity:1">
      <path
         id="path826-5-5"
         style="display:inline;opacity:1;fill:#a1adc8;fill-opacity:1;enable-background:new"
         d="M 14.644531,9.443359 C 13.81893,9.474649 13.013485,9.991894 13.003906,9.998047 V 12 H 16 c 0,0 -4,6 -5,6 -1,0 -5,-6 -5,-6 H 9 V 10 C 9,10 8.17748,9.646091 7.46875,9.832031 6.76001,10.017971 6.638496,10.51213 5.697266,10.46875 4.756036,10.42537 4.651022,9.563421 3.7324219,9.462891 2.8138519,9.362321 2.0664062,10 2.0664062,10 2.0257143,10.33184 2.003544,10.66569 2,11 c 0,4.9706 4.0294,9 9,9 4.9706,0 9,-4.0294 9,-9 -8e-4,-0.1671 -0.0055,-0.333269 -0.01563,-0.5 -0.01009,-0.166731 -0.02555,-0.334025 -0.04492,-0.5 0,0 -0.594481,-0.444967 -1.332031,-0.335938 -0.73753,0.10903 -1.157581,0.732402 -1.925781,0.638672 C 15.913501,10.209004 15.93563,9.611821 15,9.462891 14.883046,9.444271 14.763178,9.438861 14.644531,9.443361 Z" />
      <path
         id="path826-5-3"
         style="display:inline;opacity:0.35;fill:#a1adc8;fill-opacity:1;enable-background:new"
         d="m 16.435621,7.742186 c -0.81768,0.02953 -0.95823,0.523331 -1.8125,0.675781 -0.84821,0.151368 -1.608346,-0.02098 -1.619141,-0.02344 v 3.605471 h 2.996094 c 0,0 -4,6 -5,6 -1,0 -5.0000001,-6 -5.0000001,-6 h 3 V 8.335936 c 0,0 -0.590955,-0.520234 -1.171875,-0.0957 -0.58094,0.42453 -0.775372,0.150597 -1.576172,-0.189453 -0.8008,-0.34004 -1.391994,0.193369 -2.121094,0.355469 C 3.4018029,8.568352 2.507886,8.050783 2.507887,8.050783 2.260989,8.754241 2.101824,9.484068 2.03523,10.224611 c -0.0023,0.02537 -0.0038,0.05078 -0.0059,0.07617 C 2.02063,10.408052 2.01468,10.515429 2.0098,10.623047 2.0041001,10.74829 2.0005,10.874437 2,11 c 0,4.9706 4.0293999,9 9,9 4.9706,0 9,-4.0294 9,-9 -4.38e-4,-0.125563 -0.0041,-0.251709 -0.0098,-0.376953 -0.03975,-0.876708 -0.20696,-1.742941 -0.498047,-2.572266 0,0 -0.526923,0.370497 -1.220703,0.378907 -0.69375,0.0084 -1.018337,-0.71703 -1.835937,-0.6875 z" />
      <path
         id="path826-5-7"
         style="display:inline;opacity:0.35;fill:#a1adc8;fill-opacity:1;enable-background:new"
         d="M 4.486324,5.9667969 C 3.942796,5.9884829 3.390621,6.2011719 3.390621,6.2011719 2.823652,7.0988594 2.42247,8.0848858 2.201168,9.1132812 2.157178,9.3177107 2.119528,9.5250514 2.08984,9.7324219 c -6.5e-4,0.00454 -0.0013,0.00913 -0.002,0.013672 C 2.06123,9.9340065 2.04394,10.122764 2.02925,10.3125 2.02695,10.34248 2.02345,10.37228 2.02145,10.40234 2.0081,10.600986 2.00015,10.800072 2,11 c 0,4.9706 4.0294,9 9,9 4.9706,0 9,-4.0294 9,-9 -4.35e-4,-0.200023 -0.0078,-0.398942 -0.02148,-0.597656 -0.0018,-0.02811 -0.0057,-0.05594 -0.0078,-0.08399 -0.114208,-1.4599849 -0.581479,-2.8744812 -1.369141,-4.1171871 0,0 -0.371915,0.8258356 -1.234375,0.7597656 C 16.5047,6.8948565 16.649025,6.4571375 16.013675,6.4140575 15.378275,6.3709835 14.985194,6.8160294 14.400394,6.7714794 13.819905,6.7272624 13.015817,6.3916708 13.003909,6.3867138 V 12 h 2.996087 c 0,0 -4,6 -5,6 -1,0 -5,-6 -5,-6 h 3 V 6.640625 c 0,0 -0.661231,-0.6177525 -1.306641,-0.5703125 C 7.047995,6.1177565 6.780551,6.7000763 6.265621,6.6289062 5.750731,6.5577402 5.639345,6.2250675 5.005855,6.0234375 4.847483,5.9730295 4.6675,5.9595685 4.486324,5.9667969 Z" />
    </g>
  </g>
  <g
     id="ktorrent"
     transform="translate(-11 -1)">
    <rect
       id="rect851"
       x="46"
       y="-3"
       width="32"
       height="32"
       ry=".43997"
       fill="none" />
    <path
       id="path9"
       d="m56.156-2.6038v20.293h12.488v-20.293z"
       fill="#81bdf8"
       stroke-opacity=".55"
       stroke-width="3.5396"
       inkscape:connector-curvature="0" />
    <path
       id="path11"
       d="m63.561 5.1874c-0.64623 0-1.1707 0.52448-1.1707 1.1707 0 0.64623 0.52448 1.1707 1.1707 1.1707 0.64623 0 1.1707-0.52448 1.1707-1.1707 0-0.64623-0.52448-1.1707-1.1707-1.1707m13.658 7.0242c-0.43082 0-0.78047 0.34965-0.78047 0.78047 0 0.43082 0.34965 0.78047 0.78047 0.78047s0.78047-0.34965 0.78047-0.78047c0-0.43082-0.34965-0.78047-0.78047-0.78047m-27.707-4.6828c-0.64623 0-1.1707 0.52448-1.1707 1.1707 0 0.64623 0.52448 1.1707 1.1707 1.1707s1.1707-0.52448 1.1707-1.1707c0-0.64623-0.52448-1.1707-1.1707-1.1707m9.19 0.85852c-0.05229 0.00624-0.10302 0.021073-0.15219 0.042926-0.39492 0.17326-0.52838 0.73676-0.0094 1.9207 0.51979 1.184 1.2605 2.0042 1.6554 1.831s0.29346-1.2729-0.22556-2.4569c-0.45423-1.0365-0.89988-1.3822-1.2683-1.3369m-4.6734 0.4956c-0.30829-0.026536-0.7313 0.28019-0.34731 0.71647 0.51121 0.58223 0.78047 1.6187 0.32468 1.8263-0.45814 0.2076-0.42458-0.77266-0.46516-1.294-0.0398-0.52135-1.3088-0.8351-1.7771-0.18887-0.46828 0.64623 0.0031 1.3424 0.46672 1.4829 0.4636 0.14126 0.5354 0.67198 0.81091 1.2238 0.27628 0.55179 1.6203 0.41365 1.948 0 0.32783-0.41365 0.53153-1.1824-0.10689-1.8919-0.63842-0.70945-0.44487-1.3682-0.61735-1.7303-0.042926-0.090534-0.13346-0.1358-0.23648-0.14517m15.214 0.060877c-0.41443-0.097559-0.58535 0.68291-0.68291 1.415-0.09756 0.73208-0.4636 1.4876-0.14673 1.6343 0.4394 0.19512 0.6634-1.0052 1.1598-1.454 0.49638-0.44955 0.08351-1.4969-0.33092-1.5945m-13.097 0.14673c-0.43082 0-0.78047 0.34965-0.78047 0.78047 0 0.43082 0.34965 0.78047 0.78047 0.78047s0.78047-0.34965 0.78047-0.78047c0-0.43082-0.34965-0.78047-0.78047-0.78047m9.4843 0.18419c-0.5073 0.037463-1.0123 0.903-1.2605 1.5032-0.28409 0.68525 0.05932 2.0214-0.60955 2.5225-0.66886 0.50184-1.1582 0.51589-1.4923 0.31531-0.33404-0.20058 0.28643-0.17482-0.08663-0.9389-0.37384-0.76408-1.2675-0.52526-1.5016 0.07024-0.23414 0.5955 0.25131 0.56818 0.08351 0.91939-0.16702 0.35121-1.589 0.73052-1.9067-0.32311s-1.4462-2.2001-1.7974-1.9161c-0.35121 0.28409 0.04215 1.3315 0.96154 2.1674 0.91939 0.83588-0.2357 1.2862-1.0349 0.65716-0.7992-0.62984-1.7389 0.47843-2.4663 1.2199-0.72818 0.74066-1.3783 0.7914-1.8965 0.34731-0.51745-0.44331-0.06244-1.6499-0.66028-2.8628-0.59706-1.2128-1.7842-0.60877-1.9512 0.21073-0.16702 0.81949 1.4985 1.3713 1.1754 1.8263s-1.6148 0.35199-1.9957-0.50574c-0.38009-0.85774-1.2089-0.57989-1.2253 0.12175-0.01639 0.70242 0.64154 0.21229 1.1551 0.72584l13.268 13.268 13.268-13.268c1.5609-1.5609-0.22634-0.89208-0.59472-0.54086-0.3676 0.35121-1.5047 0.63608-1.639 0.25131-0.13346-0.38477 1.2737-1.0302 1.6749-1.4649 0.40116-0.43472 0.79374-1.6694 0.14517-2.1221-0.64857-0.45267-1.5687 0.36448-1.9676 0.96622-0.40116 0.60174-0.05307 2.1354-0.58847 2.6036-0.5354 0.46828-0.82964 0.18341-0.92954-0.21775-0.10068-0.40116 1.1551-0.96544 0.62828-1.9637-0.5276-0.99822-1.5016-0.54555-1.9527-0.07805-0.45111 0.46828 0.2716 1.1894 0.4394 1.9254 0.16702 0.73598-1.5445 0.71725-2.2134 0.44955-0.66886-0.2677-0.88661-1.9496-1.1707-2.0503-0.28409-0.10068-1.0084 0.55726-1.9285 0.27316-0.91939-0.28409-0.15609-0.85071 0.128-1.5196 0.28409-0.66886 0.73286-2.2805 0.15844-2.5334-0.0718-0.031999-0.14439-0.043706-0.21619-0.038243m8.0763-0.96466c-0.64623 0-1.1707 0.52448-1.1707 1.1707 0 0.64623 0.52448 1.1707 1.1707 1.1707s1.1707-0.52448 1.1707-1.1707c0-0.64623-0.52448-1.1707-1.1707-1.1707m-26.926 3.1219c-0.43082 0-0.78047 0.34965-0.78047 0.78047 0 0.43082 0.34965 0.78047 0.78047 0.78047 0.43082 0 0.78047-0.34965 0.78047-0.78047 0-0.43082-0.34965-0.78047-0.78047-0.78047"
       fill="#1b92f4"
       fill-rule="evenodd"
       stroke-width=".60045"
       inkscape:connector-curvature="0" />
    <path
       id="path13"
       d="m73.706 8.3124c-0.64623 0-1.1707 0.52448-1.1707 1.1707 0 0.64623 0.52448 1.1707 1.1707 1.1707s1.1707-0.52448 1.1707-1.1707c0-0.64623-0.52448-1.1707-1.1707-1.1707zm-4.4618 0.63108c-0.41443-0.097559-0.58535 0.68404-0.68291 1.4162-0.09756 0.73212-0.46321 1.4874-0.14634 1.6341 0.4394 0.19512 0.66213-1.0055 1.1585-1.4542 0.49638-0.44955 0.08364-1.4969-0.33079-1.5945zm5.474 2.3917c-0.5511 0.06706-1.1429 0.63861-1.4421 1.0899-0.40116 0.60174-0.053 2.1353-0.5884 2.6036-0.5354 0.46828-0.82995 0.18318-0.92985-0.21798-0.10068-0.40116 1.1549-0.96513 0.62804-1.9633-0.5276-0.99822-1.5016-0.54524-1.9527-0.07774-0.45111 0.46828 0.27121 1.1893 0.43901 1.9253 0.16702 0.73598-1.5445 0.71738-2.2133 0.44968-0.07151-0.02862-0.13482-0.07991-0.19664-0.13719a13.694 16.781 0 0 1-3.2087 10.733l10.404-10.404c1.5609-1.5609-0.22612-0.89239-0.5945-0.54115-0.3676 0.35121-1.5044 0.63629-1.6387 0.25151-0.13346-0.38477 1.2726-1.0302 1.6737-1.4649s0.79491-1.6708 0.14634-2.1234c-0.16214-0.11317-0.3422-0.14582-0.5259-0.12347zm2.5015 0.87647c-0.43082 0-0.78047 0.34965-0.78047 0.78047s0.34965 0.78047 0.78047 0.78047 0.78047-0.34965 0.78047-0.78047-0.34965-0.78047-0.78047-0.78047z"
       fill="url(#a)"
       fill-rule="evenodd"
       opacity=".15"
       stroke-width=".60045"
       inkscape:connector-curvature="0" />
  </g>
</svg>

<?xml version="1.0" encoding="UTF-8" standalone="no"?>
<svg
   xmlns:dc="http://purl.org/dc/elements/1.1/"
   xmlns:cc="http://creativecommons.org/ns#"
   xmlns:rdf="http://www.w3.org/1999/02/22-rdf-syntax-ns#"
   xmlns:svg="http://www.w3.org/2000/svg"
   xmlns="http://www.w3.org/2000/svg"
   xmlns:sodipodi="http://sodipodi.sourceforge.net/DTD/sodipodi-0.dtd"
   xmlns:inkscape="http://www.inkscape.org/namespaces/inkscape"
   id="svg2817"
   width="22"
   height="22"
   inkscape:version="1.0.2 (e86c870879, 2021-01-15)"
   sodipodi:docname="ktorrent.svg"
   version="1">
  <metadata
     id="metadata22">
    <rdf:RDF>
      <cc:Work
         rdf:about="">
        <dc:format>image/svg+xml</dc:format>
        <dc:type
           rdf:resource="http://purl.org/dc/dcmitype/StillImage" />
      </cc:Work>
    </rdf:RDF>
  </metadata>
  <sodipodi:namedview
     id="namedview8"
     bordercolor="#666666"
     borderopacity="1"
     gridtolerance="10"
     guidetolerance="10"
     inkscape:bbox-nodes="true"
     inkscape:current-layer="22-22-ktorrent"
     inkscape:cx="14.668131"
     inkscape:cy="17.112038"
     inkscape:pageopacity="0"
     inkscape:pageshadow="2"
     inkscape:snap-bbox="true"
     inkscape:snap-bbox-edge-midpoints="true"
     inkscape:snap-nodes="false"
     inkscape:window-height="714"
     inkscape:window-maximized="1"
     inkscape:window-width="1366"
     inkscape:window-x="0"
     inkscape:window-y="26"
     inkscape:zoom="16.187085"
     objecttolerance="10"
     pagecolor="#323232"
     showgrid="true"
     inkscape:document-rotation="0">
    <inkscape:grid
       id="grid843"
       type="xygrid" />
  </sodipodi:namedview>
  <defs
     id="defs9">
    <style
       id="current-color-scheme"
       type="text/css">.ColorScheme-Text { color:#a1adc8; } .ColorScheme-Highlight { color:#5294e2; } .ColorScheme-ButtonBackground { color:#a1adc8; }</style>
    <linearGradient
       id="a"
       x1="37.2"
       x2="36.985"
       y1="56.511"
       y2="34.977"
       gradientTransform="matrix(.78047 0 0 .78047 43.659 -18.227)"
       gradientUnits="userSpaceOnUse">
      <stop
         id="stop2"
         offset="0" />
      <stop
         id="stop4"
         stop-opacity="0"
         offset="1" />
    </linearGradient>
  </defs>
  <g
     id="22-22-ktorrent"
     enable-background="new">
    <path
       id="path826"
       d="m11 2a9 9 0 0 0-9 9 9 9 0 0 0 9 9 9 9 0 0 0 9-9 9 9 0 0 0-9-9zm-2 3h4v7h3l-5 6-5-6h3z"
       fill="#a1adc8"
       opacity=".35"
       inkscape:connector-curvature="0"
       style="fill:#a1adc8;fill-opacity:1" />
    <path
       id="rect4139"
       d="m0.25 0h21.5c0.1385 0 0.25 0.1115 0.25 0.25v21.5c0 0.1385-0.11151 0.25-0.25 0.25h-21.5c-0.1385 0-0.25-0.1115-0.25-0.25v-21.5c0-0.1385 0.11151-0.25 0.25-0.25z"
       opacity="0"
       inkscape:connector-curvature="0" />
    <g
       id="g11"
       fill="#a1adc8"
       style="fill:#a1adc8;fill-opacity:1">
      <path
         id="path841"
         d="m2.0664 10c-0.040692 0.33184-0.062862 0.66569-0.066406 1 0 4.9706 4.0294 9 9 9s9-4.0294 9-9c-0.0016-0.3342-0.02181-0.66805-0.06055-1 0 0-0.59475-0.44451-1.3323-0.33548-0.73753 0.10903-1.1578 0.73114-1.926 0.63741-0.76814-0.093726-0.74557-0.68977-1.6812-0.8387s-2 0.53677-2 0.53677v2h3l-5 6-5-6h3v-2s-0.82337-0.35368-1.5321-0.16774c-0.70874 0.18594-0.82857 0.68079-1.7698 0.63741s-1.0479-0.90587-1.9665-1.0064c-0.91857-0.10057-1.6652 0.53677-1.6652 0.53677z"
         inkscape:connector-curvature="0"
         sodipodi:nodetypes="ccscczzzccccccczzzc"
         style="fill:#a1adc8;fill-opacity:1" />
      <path
         id="path848"
         d="m2.5078 8.0508c-0.33267 0.94784-0.50432 1.9447-0.50781 2.9492 0 4.9706 4.0294 9 9 9s9-4.0294 9-9c-0.0035-1.0045-0.17514-2.0014-0.50781-2.9492 0 0-0.52602 0.37114-1.2198 0.37955-0.69375 0.00841-1.0189-0.71747-1.8365-0.68794-0.81768 0.029535-0.95853 0.52363-1.8128 0.67608s-1.623-0.023722-1.623-0.023722v3.6052h3l-5 6-5-6h3v-3.6646s-0.59138-0.51942-1.1723-0.094888c-0.58094 0.42453-0.7748 0.15027-1.5756-0.18978-0.8008-0.34004-1.3921 0.19373-2.1212 0.35583-0.72913 0.1621-1.623-0.35583-1.623-0.35583z"
         opacity=".35"
         inkscape:connector-curvature="0"
         sodipodi:nodetypes="ccscczzzccccccczzzc"
         style="fill:#a1adc8;fill-opacity:1" />
      <path
         id="path853"
         d="m3.3906 6.2012c-0.90715 1.4363-1.3893 3.1-1.3906 4.7988 0 4.9706 4.0294 9 9 9s9-4.0294 9-9c-0.0037-1.6996-0.48854-3.3633-1.3984-4.7988 0 0-0.37184 0.82518-1.2343 0.75911-0.86249-0.066076-0.71755-0.50253-1.3529-0.54561-0.6354-0.043074-1.0291 0.40038-1.6139 0.35583-0.58481-0.044546-1.4004-0.38482-1.4004-0.38482v5.6143h3l-5 6-5-6h3v-5.36s-0.66209-0.61677-1.3075-0.56933c-0.64536 0.047444-0.91117 0.62864-1.4261 0.55747-0.51489-0.071166-0.62651-0.40328-1.26-0.60491s-1.6158 0.17792-1.6158 0.17792z"
         opacity=".35"
         inkscape:connector-curvature="0"
         sodipodi:nodetypes="ccscczzzccccccczzzc"
         style="fill:#a1adc8;fill-opacity:1" />
    </g>
  </g>
  <g
     id="ktorrent"
     transform="translate(-11 -1)">
    <rect
       id="rect851"
       x="46"
       y="-3"
       width="32"
       height="32"
       ry=".43997"
       fill="none" />
    <path
       id="path9"
       d="m56.156-2.6038v20.293h12.488v-20.293z"
       fill="#81bdf8"
       stroke-opacity=".55"
       stroke-width="3.5396"
       inkscape:connector-curvature="0" />
    <path
       id="path11"
       d="m63.561 5.1874c-0.64623 0-1.1707 0.52448-1.1707 1.1707 0 0.64623 0.52448 1.1707 1.1707 1.1707 0.64623 0 1.1707-0.52448 1.1707-1.1707 0-0.64623-0.52448-1.1707-1.1707-1.1707m13.658 7.0242c-0.43082 0-0.78047 0.34965-0.78047 0.78047 0 0.43082 0.34965 0.78047 0.78047 0.78047s0.78047-0.34965 0.78047-0.78047c0-0.43082-0.34965-0.78047-0.78047-0.78047m-27.707-4.6828c-0.64623 0-1.1707 0.52448-1.1707 1.1707 0 0.64623 0.52448 1.1707 1.1707 1.1707s1.1707-0.52448 1.1707-1.1707c0-0.64623-0.52448-1.1707-1.1707-1.1707m9.19 0.85852c-0.05229 0.00624-0.10302 0.021073-0.15219 0.042926-0.39492 0.17326-0.52838 0.73676-0.0094 1.9207 0.51979 1.184 1.2605 2.0042 1.6554 1.831s0.29346-1.2729-0.22556-2.4569c-0.45423-1.0365-0.89988-1.3822-1.2683-1.3369m-4.6734 0.4956c-0.30829-0.026536-0.7313 0.28019-0.34731 0.71647 0.51121 0.58223 0.78047 1.6187 0.32468 1.8263-0.45814 0.2076-0.42458-0.77266-0.46516-1.294-0.0398-0.52135-1.3088-0.8351-1.7771-0.18887-0.46828 0.64623 0.0031 1.3424 0.46672 1.4829 0.4636 0.14126 0.5354 0.67198 0.81091 1.2238 0.27628 0.55179 1.6203 0.41365 1.948 0 0.32783-0.41365 0.53153-1.1824-0.10689-1.8919-0.63842-0.70945-0.44487-1.3682-0.61735-1.7303-0.042926-0.090534-0.13346-0.1358-0.23648-0.14517m15.214 0.060877c-0.41443-0.097559-0.58535 0.68291-0.68291 1.415-0.09756 0.73208-0.4636 1.4876-0.14673 1.6343 0.4394 0.19512 0.6634-1.0052 1.1598-1.454 0.49638-0.44955 0.08351-1.4969-0.33092-1.5945m-13.097 0.14673c-0.43082 0-0.78047 0.34965-0.78047 0.78047 0 0.43082 0.34965 0.78047 0.78047 0.78047s0.78047-0.34965 0.78047-0.78047c0-0.43082-0.34965-0.78047-0.78047-0.78047m9.4843 0.18419c-0.5073 0.037463-1.0123 0.903-1.2605 1.5032-0.28409 0.68525 0.05932 2.0214-0.60955 2.5225-0.66886 0.50184-1.1582 0.51589-1.4923 0.31531-0.33404-0.20058 0.28643-0.17482-0.08663-0.9389-0.37384-0.76408-1.2675-0.52526-1.5016 0.07024-0.23414 0.5955 0.25131 0.56818 0.08351 0.91939-0.16702 0.35121-1.589 0.73052-1.9067-0.32311s-1.4462-2.2001-1.7974-1.9161c-0.35121 0.28409 0.04215 1.3315 0.96154 2.1674 0.91939 0.83588-0.2357 1.2862-1.0349 0.65716-0.7992-0.62984-1.7389 0.47843-2.4663 1.2199-0.72818 0.74066-1.3783 0.7914-1.8965 0.34731-0.51745-0.44331-0.06244-1.6499-0.66028-2.8628-0.59706-1.2128-1.7842-0.60877-1.9512 0.21073-0.16702 0.81949 1.4985 1.3713 1.1754 1.8263s-1.6148 0.35199-1.9957-0.50574c-0.38009-0.85774-1.2089-0.57989-1.2253 0.12175-0.01639 0.70242 0.64154 0.21229 1.1551 0.72584l13.268 13.268 13.268-13.268c1.5609-1.5609-0.22634-0.89208-0.59472-0.54086-0.3676 0.35121-1.5047 0.63608-1.639 0.25131-0.13346-0.38477 1.2737-1.0302 1.6749-1.4649 0.40116-0.43472 0.79374-1.6694 0.14517-2.1221-0.64857-0.45267-1.5687 0.36448-1.9676 0.96622-0.40116 0.60174-0.05307 2.1354-0.58847 2.6036-0.5354 0.46828-0.82964 0.18341-0.92954-0.21775-0.10068-0.40116 1.1551-0.96544 0.62828-1.9637-0.5276-0.99822-1.5016-0.54555-1.9527-0.07805-0.45111 0.46828 0.2716 1.1894 0.4394 1.9254 0.16702 0.73598-1.5445 0.71725-2.2134 0.44955-0.66886-0.2677-0.88661-1.9496-1.1707-2.0503-0.28409-0.10068-1.0084 0.55726-1.9285 0.27316-0.91939-0.28409-0.15609-0.85071 0.128-1.5196 0.28409-0.66886 0.73286-2.2805 0.15844-2.5334-0.0718-0.031999-0.14439-0.043706-0.21619-0.038243m8.0763-0.96466c-0.64623 0-1.1707 0.52448-1.1707 1.1707 0 0.64623 0.52448 1.1707 1.1707 1.1707s1.1707-0.52448 1.1707-1.1707c0-0.64623-0.52448-1.1707-1.1707-1.1707m-26.926 3.1219c-0.43082 0-0.78047 0.34965-0.78047 0.78047 0 0.43082 0.34965 0.78047 0.78047 0.78047 0.43082 0 0.78047-0.34965 0.78047-0.78047 0-0.43082-0.34965-0.78047-0.78047-0.78047"
       fill="#1b92f4"
       fill-rule="evenodd"
       stroke-width=".60045"
       inkscape:connector-curvature="0" />
    <path
       id="path13"
       d="m73.706 8.3124c-0.64623 0-1.1707 0.52448-1.1707 1.1707 0 0.64623 0.52448 1.1707 1.1707 1.1707s1.1707-0.52448 1.1707-1.1707c0-0.64623-0.52448-1.1707-1.1707-1.1707zm-4.4618 0.63108c-0.41443-0.097559-0.58535 0.68404-0.68291 1.4162-0.09756 0.73212-0.46321 1.4874-0.14634 1.6341 0.4394 0.19512 0.66213-1.0055 1.1585-1.4542 0.49638-0.44955 0.08364-1.4969-0.33079-1.5945zm5.474 2.3917c-0.5511 0.06706-1.1429 0.63861-1.4421 1.0899-0.40116 0.60174-0.053 2.1353-0.5884 2.6036-0.5354 0.46828-0.82995 0.18318-0.92985-0.21798-0.10068-0.40116 1.1549-0.96513 0.62804-1.9633-0.5276-0.99822-1.5016-0.54524-1.9527-0.07774-0.45111 0.46828 0.27121 1.1893 0.43901 1.9253 0.16702 0.73598-1.5445 0.71738-2.2133 0.44968-0.07151-0.02862-0.13482-0.07991-0.19664-0.13719a13.694 16.781 0 0 1-3.2087 10.733l10.404-10.404c1.5609-1.5609-0.22612-0.89239-0.5945-0.54115-0.3676 0.35121-1.5044 0.63629-1.6387 0.25151-0.13346-0.38477 1.2726-1.0302 1.6737-1.4649s0.79491-1.6708 0.14634-2.1234c-0.16214-0.11317-0.3422-0.14582-0.5259-0.12347zm2.5015 0.87647c-0.43082 0-0.78047 0.34965-0.78047 0.78047s0.34965 0.78047 0.78047 0.78047 0.78047-0.34965 0.78047-0.78047-0.34965-0.78047-0.78047-0.78047z"
       fill="url(#a)"
       fill-rule="evenodd"
       opacity=".15"
       stroke-width=".60045"
       inkscape:connector-curvature="0" />
  </g>
</svg>
